X: 4
T: Upstairs In A Tent
R: reel
M: 4/4
L: 1/8
K: Amix
|:A3g fdec|A3=c BG G2|A3g fdef|g3d BGGB |
A3g fdec|A3=c BG G2|A3g fdef|g3d BG G2||
|:faaf gfed|cAeA fA A2|faaf gfef|g3d BG G2 |
faaf gfed|cAeA fA A2|faaf gfef|g3d BGGB||


Tune 136	Setting 12753

